X: 1779
T: Silifke`nin Yoğurdu
C: Cavid Erden
O: Turkey
F: http://compmusic.upf.edu/node/140
N: segah--turku--nimsofyan--silifkenin_yogurdu--
N: makam= segah
N: form= turku
N: usul= nimsofyan = 2/4
M: 2/4
L: 1/16
K: C _1/4B _1/4e ^f 
Q: 1/4=90
%%MIDI tuningsystem comma53
c2d6  | d2f6  | fge6  | efd6  | dec6  | d_2/4e^3/4fe fge2  | \
w:  Ah_ ey   |   |   |   |   |  hey   | 
_2/4edc2 ^3/4feed  | 
w:   | 
d8  | d6z2  | gfga fgef  | dedc B4  | G2Bc d2d2  | 
w:  hey    |   |  Si lif *  *  ke *  nin   |  yo *  ğur *  du   |  ah  se ni  kim ler   | 
edec B4  | gfga fgef  | dede fgfe  | 
w:  do *  ğur *  du    |  Se ni  *  *  do *  ğu  |  ran_ *  a *  na   | 
z2de fgfe  | dedc B4  | g4 f2e2  | d3c B4  | \
w:  ba lı nan  *  mı   |  yo *  ğur *  du    |  Be şi ği   |  çam *  dan   | 
G2Bc defg  | 
w:  ah  yu var lan *  dı   | 
fedc B4  | ggg2 f2e2  | d2de f2e2  | gfga f2e2  | 
w:  dam *  *  *  dan    |  A na sı  pi lav   |  pi şi *  rir   |  oğ *  lu  *  dur maz   | 
d2dc B4  | g4 f2e2  | d3c B4  | G2Bc defg  | \
w:  a şı *  rır    |  SAZ  |   |   | 
fedc B4  | 
w:   | 
ggg2 f2e2  | d2de f2e2  | gfga f2e2  | d2dc B4  | \
w:   |   |   |   | 
gfga fgef  | 
w:  Si lif *  *  ke *  nin   | 
dedc B4  | G2Bc d2d2  | edec B4  | gfga fgef  | 
w:  yo *  ğur *  du   |  ah  se ni  kim ler   |  do *  ğur *  du    |  Se ni  *  *  do *  ğu  | 
dede fgfe  | z2de fgfe  | dedc B4  | g4 f2e2  | 
w:  ran_ *  a *  na   |  ba lı nan  *  mı   |  yo *  ğur *  du    |  Be şi ği   | 
d3c B4  | G2Bc defg  | fedc B4  | ggg2 f2e2  | \
w:  çam *  dan   |  ah  yu var lan *  dı   |  dam *  *  *  dan    |  A na sı  pi lav   | 
d2de f2e2  | 
w:  pi şi *  rir   | 
gfga f2e2  | d2dc B4  | f8  | f8  | fgg6  | g6ga  | \
w:  oğ *  lu  *  dur maz   |  a şı *  rır    |   |   |   |   | 
gffe f3g  | 
w:   | 
feed e2z2  | fg4-gga  | gffe f3g  | feed e2z2  | 
w:   |   |   |   | 
fgeg fgeg  | fgeg fged  | d2ag afge  | 
w:   |   |   | 
fdec B4  | g4 f2e2  | d3c B4  | G2Bc defg  | \
w:   |  Be şi ği   |  çam *  dan   |  ah  yu var lan *  dı   | 
fedc B4  | 
w:  dam *  *  *  dan    | 
g3g f2e2  | d2de f2e2  | gfga f2e2  | d2dc B4  | |


